src/components/game/cards/illustrations/QH.svg

<svg xmlns="http://www.w3.org/2000/svg" xmlns:xlink="http://www.w3.org/1999/xlink" class="card" height="336" preserveAspectRatio="none" viewBox="-120 -168 240 336" width="240"><symbol id="b" viewBox="-600 -600 1200 1200" preserveAspectRatio="xMinYMid"><path d="M0-300c0-100 100-200 200-200s200 100 200 250C400 0 0 400 0 500 0 400-400 0-400-250c0-150 100-250 200-250S0-400 0-300z" fill="red"/></symbol><symbol id="a" viewBox="-500 -500 1000 1000" preserveAspectRatio="xMinYMid"><path d="M-260 100c300 0 220 360 520 360M-175 0v-285a175 175 0 01350 0v570a175 175 0 01-350 0z" stroke="red" stroke-width="80" stroke-linecap="square" stroke-miterlimit="1.5" fill="none"/></symbol><rect width="239" height="335" x="-119.5" y="-167.5" rx="12" ry="12" fill="#fff" stroke="#000"/><use xlink:href="#a" height="70" x="-122" y="-156"/><use xlink:href="#b" height="58.558" x="-116.279" y="-81"/><g transform="rotate(180)"><use xlink:href="#a" height="70" x="-122" y="-156"/><use xlink:href="#b" height="58.558" x="-116.279" y="-81"/></g></svg>

<?xml version="1.0" encoding="UTF-8" standalone="no"?>
<svg xmlns="http://www.w3.org/2000/svg" xmlns:xlink="http://www.w3.org/1999/xlink" class="card" face="QH" height="3.5in" preserveAspectRatio="none" viewBox="-120 -168 240 336" width="2.5in"><symbol id="SHQ" viewBox="-600 -600 1200 1200" preserveAspectRatio="xMinYMid"><path d="M0 -300C0 -400 100 -500 200 -500C300 -500 400 -400 400 -250C400 0 0 400 0 500C0 400 -400 0 -400 -250C-400 -400 -300 -500 -200 -500C-100 -500 0 -400 -0 -300Z" fill="red"></path></symbol><symbol id="VHQ" viewBox="-500 -500 1000 1000" preserveAspectRatio="xMinYMid"><path d="M-260 100C40 100 -40 460 260 460M-175 0L-175 -285A175 175 0 0 1 175 -285L175 285A175 175 0 0 1 -175 285Z" stroke="red" stroke-width="80" stroke-linecap="square" stroke-miterlimit="1.5" fill="none"></path></symbol><rect width="239" height="335" x="-119.5" y="-167.5" rx="12" ry="12" fill="white" stroke="black"></rect><use xlink:href="#VHQ" height="70" x="-122" y="-156"></use><use xlink:href="#SHQ" height="58.558" x="-116.279" y="-81"></use><g transform="rotate(180)"><use xlink:href="#VHQ" height="70" x="-122" y="-156"></use><use xlink:href="#SHQ" height="58.558" x="-116.279" y="-81"></use></g></svg>
